images/patterns/patt_2-6.svg

<svg width="151" height="6"><path d="M0 0h1v6H0V0zm4 0h1v6H4V0zm5 0H8v6h1V0zm24 0h1v6h-1V0zm18 0h-1v6h1V0zm82 0h1v6h-1V0zm-3 0h-1v6h1V0zm20 6h1V0h-1v6zm-49 0h-1V0h1v6z" fill="current-color"/></svg>

<svg width="151" height="6"><path d="M0 0H1V6H0V0ZM4 0H5V6H4V0ZM9 0H8V6H9V0ZM33 0H34V6H33V0ZM51 0H50V6H51V0ZM133 0H134V6H133V0ZM130 0H129V6H130V0ZM150 6H151V0H150V6ZM101 6H100V0H101V6Z" fill="current-color"/>
</svg>
